assets/images/sponsors-logos/accenture.svg

<svg xmlns="http://www.w3.org/2000/svg" preserveAspectRatio="xMinYMin" viewBox="12 7 376 100" width="114pt">
  <g fill="none">
    <path d="M12.8 92c.1-.3.2-.7.3-1 .6-4.5 3-7.7 7.1-9.6 2.4-1.2 5-1.8 7.7-2.1 2.1-.3 4.3-.3 6.4-.3h4.3c.1-.1.1-.1.1-.2.1-1.4.1-2.9-.2-4.3-.6-2.7-2.2-4.1-5-4.5-1-.1-2.1-.1-3.1.1-2.4.6-3.8 2.1-4.4 4.5-.1.3-.1.5-.2.9H14.3c-.1-.6.1-1.2.2-1.8 1.1-5.4 4.3-8.9 9.3-10.9 3-1.2 6.1-1.5 9.3-1.5 2.8 0 5.5.3 8.1 1.2 1.6.5 3.1 1.3 4.5 2.4 2.8 2.2 4.3 5 4.8 8.4.2 1.2.3 2.4.3 3.7v28.4H39v-4.7l-.4.4c-2.2 2.9-5.2 4.5-8.8 5.1l-2.4.3H27c-.3 0-.6-.1-.9-.1-1.4-.1-2.7-.3-4-.6-5-1.5-8.1-4.7-8.8-10 0-.3-.2-.6-.3-.9-.2-1.1-.2-2-.2-2.9zm25.9-5.1h-1.6c-2 .1-4.1.1-6.1.2-1.3.1-2.6.4-3.8 1.1-1.2.7-2 1.7-2.2 3.1-.1.6-.1 1.3-.1 1.9.1 2.2 1.3 3.8 3.5 4.3 2.3.6 4.6.4 6.8-.7 1.9-1 3.2-2.6 3.4-4.8.1-1.6.1-3.3.1-5.1zm129.2 19.5c-.5 0-.9-.1-1.4-.1-2.9-.2-5.8-.8-8.5-2-4.9-2.3-8-6.2-9.6-11.3-.7-2.2-1-4.4-1.1-6.7-.2-3.5 0-7 1-10.4 1.2-4.1 3.3-7.7 6.7-10.4 2.8-2.2 6-3.5 9.5-3.9 3.7-.5 7.3-.3 10.9.9 6.3 2.1 10 6.5 11.5 12.9.5 2 .6 4.1.7 6.2v4.6c0 .2 0 .4-.1.7h-28c.1.6.1 1.1.1 1.5.2 1.3.4 2.6.9 3.8 1.3 3.3 3.7 5.1 7.2 5.3 1.2.1 2.4 0 3.6-.4 2.3-.7 3.9-2.2 4.7-4.4.1-.2.2-.5.3-.7l.1-.1h11c0 .3-.1.6-.1.8-1.3 6-4.9 9.9-10.6 12.1-2.2.9-4.6 1.3-6.9 1.4-.4 0-.8.1-1.2.1-.2.1-.5.1-.7.1zm-8.2-27.7c1 .2 15.6.1 16.1-.1-.1-1.9-.4-3.8-1.3-5.5-.9-1.7-2.3-2.8-4.2-3.2-.5-.1-1-.2-1.5-.2-2.2-.2-4.3.2-6 1.8-2 2-2.7 4.6-3.1 7.2zm207.9 27.7c-.5 0-1-.1-1.5-.1-2.8-.2-5.5-.7-8.1-1.9-5-2.3-8.2-6.1-9.9-11.3-1.3-3.9-1.4-8-1.1-12.1.2-2.9.8-5.7 2-8.3 2.9-6.3 7.8-10 14.6-11.1 3.4-.6 6.8-.4 10.1.4 6.8 1.8 11 6.1 12.7 12.8.4 1.5.6 3 .7 4.6 0 .2.1.5.1.7v6.6h-28.1c.1.8.1 1.4.2 2.1.3 1.8.7 3.5 1.6 5 .9 1.5 2.2 2.6 3.9 3.2 1.7.5 3.4.6 5.1.3 2.9-.5 4.9-2.1 5.8-4.9.1-.2.1-.4.2-.5 1.1-.2 10.5-.1 11 .1v.7c0 .2-.1.3-.1.5-1.2 5-4.2 8.7-8.8 11-2.7 1.3-5.5 1.9-8.4 2.1-.5 0-1 .1-1.5.1h-.5zm7.8-27.6c-.1-2-.4-3.9-1.3-5.6-.9-1.6-2.3-2.7-4.1-3.1l-1.5-.3c-3.4-.3-6.2 1-7.8 4.2-.7 1.4-1.1 2.8-1.3 4.3v.4c5.4.1 10.7.1 16 .1zm-90.9 27.6c-.3 0-.6-.1-.9-.1-1.3-.1-2.6-.3-3.8-.7-4.2-1.4-6.6-4.4-7.8-8.6-.5-1.7-.7-3.4-.7-5.2V62.3h12.1v27c0 1.1 0 2.2.3 3.3.6 2.5 2.3 4 4.9 4.2 1.1.1 2.2.1 3.3-.2 2.9-.8 4.6-2.7 5.1-5.6.1-.7.2-1.4.2-2.2V62.3c.6-.2 10.9-.2 12-.1v43c-.5.2-10.8.2-12 .1v-2.9c0-1 0-1.9-.1-2.9-.1.2-.2.4-.3.5-2.1 3.5-5.3 5.5-9.3 6.1-.6.1-1.2.1-1.9.2-.2 0-.4.1-.7.1h-.4zm-206.7 0c-.5 0-.9-.1-1.4-.1-3-.2-5.9-.8-8.6-2.2-4.7-2.4-7.6-6.3-9.1-11.2-1.1-3.5-1.3-7.2-1.1-10.9.2-2.8.6-5.6 1.7-8.2 2.8-6.8 7.9-10.8 15.1-12 3.9-.7 7.8-.4 11.6.9 5.8 2 9.3 6.1 10.7 12 .2.8.3 1.7.4 2.5v.5H85.6c-.1-.3-.2-.7-.3-1-.2-.7-.4-1.3-.7-2-1.3-2.9-3.8-4.1-6.9-3.9-3 .3-5 1.8-6.3 4.5-.9 1.7-1.3 3.6-1.4 5.5-.2 2.9-.2 5.7.3 8.6.2 1.2.5 2.4 1.1 3.5 1.5 3.3 4.4 4.8 8 4.5 3.3-.3 5.4-2.3 6.5-5.3.3-.8.5-1.6.7-2.4h10.9c.1.7-.1 1.3-.2 1.9-.7 4-2.3 7.5-5.3 10.2-2.4 2.2-5.2 3.5-8.4 4.1-1.4.3-2.9.3-4.3.5-.2 0-.4.1-.7.1-.4-.1-.6-.1-.8-.1zm44.9 0c-.5 0-.9-.1-1.4-.1-3.2-.2-6.3-.9-9.1-2.5-4.3-2.3-7-5.9-8.5-10.5-.8-2.4-1.2-4.8-1.3-7.3-.2-3.5 0-6.9 1-10.2 1.4-4.9 4.1-8.9 8.6-11.6 2.7-1.6 5.6-2.5 8.7-2.8 3.5-.3 7-.1 10.3 1.1 5.7 2 9.2 6.1 10.6 12 .2.8.3 1.6.4 2.4v.5h-11.5l-.3-.9c-.2-.7-.4-1.3-.7-2-1.3-2.9-3.7-4.2-6.9-3.9-2.9.2-5 1.7-6.3 4.3-.9 1.8-1.4 3.7-1.5 5.7-.2 2.9-.2 5.7.3 8.6.2 1.2.6 2.4 1.1 3.6 1.6 3.3 4.4 4.7 7.9 4.4 3.1-.3 5.2-2.1 6.4-4.9.4-.9.6-1.8.9-2.8h10.9c-.1.7-.1 1.3-.2 1.9-.7 4.1-2.4 7.7-5.6 10.5-2.6 2.2-5.6 3.5-8.9 4.1-1.2.2-2.3.2-3.5.4-.2 0-.4.1-.7.1-.3-.1-.5-.1-.7-.1z" fill="#000"/>
    <path d="M231.2 7.6c.3.1.5.3.8.4 11.7 4.7 23.5 9.5 35.2 14.2.8.3.7.2.7 1.1v8.5c-12.3 5-24.6 9.9-36.9 14.9V35.2c7.1-2.6 14.2-5.3 21.3-7.9v-.2c-7.1-2.8-14.2-5.5-21.3-8.3V7.6h.2z" fill="#a13"/>
    <path d="M195 62.3h12v6h.1c.1-.2.3-.4.4-.6 2.3-3.6 5.7-5.5 9.8-6.2 2.1-.3 4.2-.3 6.3.2 4.1.9 6.8 3.4 8.2 7.3.8 2.3 1.2 4.6 1.2 7v29.3h-12V78.5c0-.9-.1-1.7-.2-2.6-.4-2.8-2-4.3-4.8-4.7-1.3-.2-2.6-.1-3.9.2-2.7.8-4.3 2.7-4.9 5.4-.2.8-.2 1.6-.2 2.5v26c-.6.2-11.1.2-12 .1V62.3zm48.5 8.9h-5v-9h4.9v-8.1c4-1.6 8-3.3 12.1-4.9.2.3.1.6.1.9v12.2h8.1c.2.6.2 7.8.1 9h-8.2v20.4c0 .6.1 1.3.2 1.9.4 1.8 1.6 2.8 3.5 2.9 1.5.1 2.9 0 4.4-.5.1 0 .2-.1.4-.1v9.4c-.4.1-.8.2-1.3.3-3.7.8-7.4.9-11-.1-2.8-.7-5-2.1-6.5-4.7-1-1.7-1.5-3.5-1.6-5.4-.1-1-.1-2.1-.1-3.1V72.4c-.1-.5-.1-.8-.1-1.2zm86.8-1.4c2.5-5.5 6.7-8.2 12.8-8.1v11.8c-.3 0-.7.1-1 .1-1.9 0-3.8.2-5.6.8-.5.2-1.1.4-1.6.6-2.6 1.2-4.1 3.3-4.5 6.1-.1.9-.2 1.8-.2 2.7v21.6h-12V62.3h12v7.4s.1 0 .1.1z" fill="#000"/>
  </g>
</svg>

<?xml version="1.0" encoding="UTF-8" standalone="no"?>
<!DOCTYPE svg PUBLIC "-//W3C//DTD SVG 1.1//EN" "http://www.w3.org/Graphics/SVG/1.1/DTD/svg11.dtd">
<svg xmlns="http://www.w3.org/2000/svg" xmlns:xl="http://www.w3.org/1999/xlink" version="1.1" viewBox="12 7 376 100" width="376pt" height="100pt" xmlns:dc="http://purl.org/dc/elements/1.1/">
  <metadata> Produced by OmniGraffle 7.5 
    <dc:date>2017-12-14 17:53:35 +0000</dc:date>
  </metadata>
  <defs/>
  <g stroke="none" stroke-opacity="1" stroke-dasharray="none" fill="none" fill-opacity="1">
    <title>Canvas 1</title>
    <g>
      <title>Layer 1</title>
      <path d="M 12.8 92 C 12.9 91.7 13 91.3 13.1 91 C 13.7 86.5 16.1 83.3 20.2 81.4 C 22.6 80.2 25.2 79.6 27.9 79.3 C 30 79 32.2 79 34.3 79 C 35.7 79 37.2 79 38.6 79 C 38.7 78.9 38.7 78.9 38.7 78.8 C 38.8 77.4 38.8 75.9 38.5 74.5 C 37.9 71.8 36.3 70.4 33.5 70 C 32.5 69.9 31.4 69.9 30.4 70.1 C 28 70.7 26.6 72.2 26 74.6 C 25.9 74.9 25.9 75.1 25.8 75.5 C 22 75.5 18.2 75.5 14.3 75.5 C 14.2 74.9 14.4 74.3 14.5 73.7 C 15.6 68.3 18.8 64.8 23.8 62.8 C 26.8 61.6 29.9 61.3 33.1 61.3 C 35.9 61.3 38.6 61.6 41.2 62.5 C 42.8 63 44.3 63.8 45.7 64.9 C 48.5 67.1 50 69.9 50.5 73.3 C 50.7 74.5 50.8 75.7 50.8 77 C 50.8 86.1 50.8 95.3 50.8 104.4 C 50.8 104.7 50.8 105 50.8 105.4 C 46.8 105.4 42.9 105.4 39 105.4 C 39 103.8 39 102.3 39 100.7 C 38.8 100.9 38.7 101 38.6 101.1 C 36.4 104 33.4 105.6 29.8 106.2 C 29 106.3 28.2 106.4 27.4 106.5 C 27.3 106.5 27.1 106.5 27 106.5 C 26.7 106.5 26.4 106.4 26.1 106.4 C 24.7 106.3 23.4 106.1 22.1 105.8 C 17.1 104.3 14 101.1 13.3 95.8 C 13.3 95.5 13.1 95.2 13 94.9 C 12.8 93.8 12.8 92.9 12.8 92 Z M 38.7 86.9 C 38.1 86.9 37.6 86.9 37.1 86.9 C 35.1 87 33 87 31 87.1 C 29.7 87.2 28.4 87.5 27.2 88.2 C 26 88.9 25.2 89.9 25 91.3 C 24.9 91.9 24.9 92.6 24.9 93.2 C 25 95.4 26.2 97 28.4 97.5 C 30.7 98.1 33 97.9 35.2 96.8 C 37.1 95.8 38.4 94.2 38.6 92 C 38.7 90.4 38.7 88.7 38.7 86.9 Z" fill="black"/>
      <path d="M 167.9 106.4 C 167.4 106.4 167 106.3 166.5 106.3 C 163.6 106.1 160.7 105.5 158 104.3 C 153.1 102 150 98.1 148.4 93 C 147.7 90.8 147.4 88.6 147.3 86.3 C 147.1 82.8 147.3 79.3 148.3 75.9 C 149.5 71.8 151.6 68.2 155 65.5 C 157.8 63.3 161 62 164.5 61.6 C 168.2 61.1 171.8 61.3 175.4 62.5 C 181.7 64.6 185.4 69 186.9 75.4 C 187.4 77.4 187.5 79.5 187.6 81.6 C 187.6 83.1 187.6 84.6 187.6 86.2 C 187.6 86.4 187.6 86.6 187.5 86.9 C 178.2 86.9 168.9 86.9 159.5 86.9 C 159.6 87.5 159.6 88 159.6 88.4 C 159.8 89.7 160 91 160.5 92.2 C 161.8 95.5 164.2 97.3 167.7 97.5 C 168.9 97.6 170.1 97.5 171.3 97.1 C 173.6 96.4 175.2 94.9 176 92.7 C 176.1 92.5 176.2 92.2 176.3 92 C 176.3 92 176.3 92 176.4 91.9 C 180 91.9 183.7 91.9 187.4 91.9 C 187.4 92.2 187.3 92.5 187.3 92.7 C 186 98.7 182.4 102.6 176.7 104.8 C 174.5 105.7 172.1 106.1 169.8 106.2 C 169.4 106.2 169 106.3 168.6 106.3 C 168.4 106.4 168.1 106.4 167.9 106.4 Z M 159.7 78.7 C 160.7 78.9 175.3 78.8 175.8 78.6 C 175.7 76.7 175.4 74.8 174.5 73.1 C 173.6 71.4 172.2 70.3 170.3 69.9 C 169.8 69.8 169.3 69.7 168.8 69.7 C 166.6 69.5 164.5 69.9 162.8 71.5 C 160.8 73.5 160.1 76.1 159.7 78.7 Z" fill="black"/>
      <path d="M 367.6 106.4 C 367.1 106.4 366.6 106.3 366.1 106.3 C 363.3 106.1 360.6 105.6 358 104.4 C 353 102.1 349.8 98.3 348.1 93.1 C 346.8 89.2 346.7 85.1 347 81 C 347.2 78.1 347.8 75.3 349 72.7 C 351.9 66.4 356.8 62.7 363.6 61.6 C 367 61 370.4 61.2 373.7 62 C 380.5 63.8 384.7 68.1 386.4 74.8 C 386.8 76.3 387 77.8 387.1 79.4 C 387.1 79.6 387.2 79.9 387.2 80.1 C 387.2 82.3 387.2 84.5 387.2 86.7 C 386.9 86.7 386.5 86.7 386.2 86.7 C 377.5 86.7 368.9 86.7 360.2 86.7 C 359.9 86.7 359.6 86.7 359.1 86.7 C 359.2 87.5 359.2 88.1 359.3 88.8 C 359.6 90.6 360 92.3 360.9 93.8 C 361.8 95.3 363.1 96.4 364.8 97 C 366.5 97.5 368.2 97.6 369.9 97.3 C 372.8 96.8 374.8 95.2 375.7 92.4 C 375.8 92.2 375.8 92 375.9 91.9 C 377 91.7 386.4 91.8 386.9 92 C 386.9 92.2 386.9 92.4 386.9 92.7 C 386.9 92.9 386.8 93 386.8 93.2 C 385.6 98.2 382.6 101.9 378 104.2 C 375.3 105.5 372.5 106.1 369.6 106.3 C 369.1 106.3 368.6 106.4 368.1 106.4 C 368 106.4 367.8 106.4 367.6 106.4 Z M 375.4 78.8 C 375.3 76.8 375 74.9 374.1 73.2 C 373.2 71.6 371.8 70.5 370 70.1 C 369.5 70 369 69.9 368.5 69.8 C 365.1 69.5 362.3 70.8 360.7 74 C 360 75.4 359.6 76.8 359.4 78.3 C 359.4 78.4 359.4 78.6 359.4 78.7 C 364.8 78.8 370.1 78.8 375.4 78.8 Z" fill="black"/>
      <path d="M 284.5 106.4 C 284.2 106.4 283.9 106.3 283.6 106.3 C 282.3 106.2 281 106 279.8 105.6 C 275.6 104.2 273.2 101.2 272 97 C 271.5 95.3 271.3 93.6 271.3 91.8 C 271.3 82.2 271.3 72.6 271.3 63.1 C 271.3 62.9 271.3 62.6 271.3 62.3 C 275.4 62.3 279.4 62.3 283.4 62.3 C 283.4 62.6 283.4 62.9 283.4 63.2 C 283.4 71.9 283.4 80.6 283.4 89.3 C 283.4 90.4 283.4 91.5 283.7 92.6 C 284.3 95.1 286 96.6 288.6 96.8 C 289.7 96.9 290.8 96.9 291.9 96.6 C 294.8 95.8 296.5 93.9 297 91 C 297.1 90.3 297.2 89.6 297.2 88.8 C 297.2 80.3 297.2 71.7 297.2 63.2 C 297.2 62.9 297.2 62.6 297.2 62.3 C 297.8 62.1 308.1 62.1 309.2 62.2 C 309.2 76.5 309.2 90.9 309.2 105.2 C 308.7 105.4 298.4 105.4 297.2 105.3 C 297.2 104.3 297.2 103.3 297.2 102.4 C 297.2 101.4 297.2 100.5 297.1 99.5 C 297 99.7 296.9 99.9 296.8 100 C 294.7 103.5 291.5 105.5 287.5 106.1 C 286.9 106.2 286.3 106.2 285.6 106.3 C 285.4 106.3 285.2 106.4 284.9 106.4 C 284.8 106.4 284.7 106.4 284.5 106.4 Z" fill="black"/>
      <path d="M 77.8 106.4 C 77.3 106.4 76.9 106.3 76.4 106.3 C 73.4 106.1 70.5 105.5 67.8 104.1 C 63.1 101.7 60.2 97.8 58.7 92.9 C 57.6 89.4 57.4 85.7 57.6 82 C 57.8 79.2 58.2 76.4 59.3 73.8 C 62.1 67 67.2 63 74.4 61.8 C 78.3 61.1 82.2 61.4 86 62.7 C 91.8 64.7 95.3 68.8 96.7 74.7 C 96.9 75.5 97 76.4 97.1 77.2 C 97.1 77.3 97.1 77.5 97.1 77.7 C 93.3 77.7 89.4 77.7 85.6 77.7 C 85.5 77.4 85.4 77 85.3 76.7 C 85.1 76 84.9 75.4 84.6 74.7 C 83.3 71.8 80.8 70.6 77.7 70.8 C 74.7 71.1 72.7 72.6 71.4 75.3 C 70.5 77 70.1 78.9 70 80.8 C 69.8 83.7 69.8 86.5 70.3 89.4 C 70.5 90.6 70.8 91.8 71.4 92.9 C 72.9 96.2 75.8 97.7 79.4 97.4 C 82.7 97.1 84.8 95.1 85.9 92.1 C 86.2 91.3 86.4 90.5 86.6 89.7 C 90.2 89.7 93.8 89.7 97.5 89.7 C 97.6 90.4 97.4 91 97.3 91.6 C 96.6 95.6 95 99.1 92 101.8 C 89.6 104 86.8 105.3 83.6 105.9 C 82.2 106.2 80.7 106.2 79.3 106.4 C 79.1 106.4 78.9 106.5 78.6 106.5 C 78.2 106.4 78 106.4 77.8 106.4 Z" fill="black"/>
      <path d="M 122.7 106.4 C 122.2 106.4 121.8 106.3 121.3 106.3 C 118.1 106.1 115 105.4 112.2 103.8 C 107.9 101.5 105.2 97.9 103.7 93.3 C 102.9 90.9 102.5 88.5 102.4 86 C 102.2 82.5 102.4 79.1 103.4 75.8 C 104.8 70.9 107.5 66.9 112 64.2 C 114.7 62.6 117.6 61.7 120.7 61.4 C 124.2 61.1 127.7 61.3 131 62.5 C 136.7 64.5 140.2 68.6 141.6 74.5 C 141.8 75.3 141.9 76.1 142 76.9 C 142 77.1 142 77.2 142 77.4 C 138.2 77.4 134.4 77.4 130.5 77.4 C 130.4 77.1 130.3 76.8 130.2 76.5 C 130 75.8 129.8 75.2 129.5 74.5 C 128.2 71.6 125.8 70.3 122.6 70.6 C 119.7 70.8 117.6 72.3 116.3 74.9 C 115.4 76.7 114.9 78.6 114.8 80.6 C 114.6 83.5 114.6 86.3 115.1 89.2 C 115.3 90.4 115.7 91.6 116.2 92.8 C 117.8 96.1 120.6 97.5 124.1 97.2 C 127.2 96.9 129.3 95.1 130.5 92.3 C 130.9 91.4 131.1 90.5 131.4 89.5 C 135 89.5 138.6 89.5 142.3 89.5 C 142.2 90.2 142.2 90.8 142.1 91.4 C 141.4 95.5 139.7 99.1 136.5 101.9 C 133.9 104.1 130.9 105.4 127.6 106 C 126.4 106.2 125.3 106.2 124.1 106.4 C 123.9 106.4 123.7 106.5 123.4 106.5 C 123.1 106.4 122.9 106.4 122.7 106.4 Z" fill="black"/>
      <path d="M 231.2 7.6 C 231.5 7.7 231.7 7.9 232 8 C 243.7 12.7 255.5 17.5 267.2 22.2 C 268 22.5 267.9 22.4 267.9 23.3 C 267.9 25.9 267.9 28.4 267.9 31 C 267.9 31.2 267.9 31.5 267.9 31.8 C 255.6 36.8 243.3 41.7 231 46.7 C 231 42.8 231 39 231 35.2 C 238.1 32.6 245.2 29.9 252.3 27.3 C 252.3 27.2 252.3 27.2 252.3 27.1 C 245.2 24.3 238.1 21.6 231 18.8 C 231 15.1 231 11.3 231 7.6 C 231.1 7.6 231.2 7.6 231.2 7.6 Z" fill="#a13"/>
      <path d="M 195 62.3 C 199 62.3 203 62.3 207 62.3 C 207 64.3 207 66.3 207 68.3 L 207.1 68.3 C 207.2 68.1 207.4 67.9 207.5 67.7 C 209.8 64.1 213.2 62.2 217.3 61.5 C 219.4 61.2 221.5 61.2 223.6 61.7 C 227.7 62.6 230.4 65.1 231.8 69 C 232.6 71.3 233 73.6 233 76 C 233 85.5 233 95.1 233 104.6 C 233 104.8 233 105 233 105.3 C 229 105.3 225 105.3 221 105.3 C 221 105 221 104.7 221 104.4 C 221 95.8 221 87.1 221 78.5 C 221 77.6 220.9 76.8 220.8 75.9 C 220.4 73.1 218.8 71.6 216 71.2 C 214.7 71 213.4 71.1 212.1 71.4 C 209.4 72.2 207.8 74.1 207.2 76.8 C 207 77.6 207 78.4 207 79.3 C 207 87.7 207 96 207 104.4 C 207 104.7 207 105 207 105.3 C 206.4 105.5 195.9 105.5 195 105.4 C 195 91 195 76.7 195 62.3 Z" fill="black"/>
      <path d="M 243.5 71.2 C 241.8 71.2 240.2 71.2 238.5 71.2 C 238.5 68.2 238.5 65.3 238.5 62.2 C 240.1 62.2 241.8 62.2 243.4 62.2 C 243.4 59.5 243.4 56.8 243.4 54.1 C 247.4 52.5 251.4 50.8 255.5 49.2 C 255.7 49.5 255.6 49.8 255.6 50.1 C 255.6 53.8 255.6 57.5 255.6 61.3 C 255.6 61.6 255.6 61.9 255.6 62.3 C 258.4 62.3 261 62.3 263.7 62.3 C 263.9 62.9 263.9 70.1 263.8 71.3 C 261.1 71.3 258.4 71.3 255.6 71.3 C 255.6 71.7 255.6 71.9 255.6 72.2 C 255.6 78.7 255.6 85.2 255.6 91.7 C 255.6 92.3 255.7 93 255.8 93.6 C 256.2 95.4 257.4 96.4 259.3 96.5 C 260.8 96.6 262.2 96.5 263.7 96 C 263.8 96 263.9 95.9 264.1 95.9 C 264.1 99 264.1 102.1 264.1 105.3 C 263.7 105.4 263.3 105.5 262.8 105.6 C 259.1 106.4 255.4 106.5 251.8 105.5 C 249 104.8 246.8 103.4 245.3 100.8 C 244.3 99.1 243.8 97.3 243.7 95.4 C 243.6 94.4 243.6 93.3 243.6 92.3 C 243.6 85.7 243.6 79 243.6 72.4 C 243.5 71.9 243.5 71.6 243.5 71.2 Z" fill="black"/>
      <path d="M 330.3 69.8 C 332.8 64.3 337 61.6 343.1 61.7 C 343.1 65.7 343.1 69.6 343.1 73.5 C 342.8 73.5 342.4 73.6 342.1 73.6 C 340.2 73.6 338.3 73.8 336.5 74.4 C 336 74.6 335.4 74.8 334.9 75 C 332.3 76.2 330.8 78.3 330.4 81.1 C 330.3 82 330.2 82.9 330.2 83.8 C 330.2 90.7 330.2 97.6 330.2 104.5 C 330.2 104.8 330.2 105.1 330.2 105.4 C 326.2 105.4 322.2 105.4 318.2 105.4 C 318.2 91 318.2 76.7 318.2 62.3 C 322.2 62.3 326.2 62.3 330.2 62.3 C 330.2 64.8 330.2 67.3 330.2 69.7 C 330.2 69.7 330.3 69.7 330.3 69.8 Z" fill="black"/>
    </g>
  </g>
</svg>
